X:311
T:Dawning of the Day
S:Bruce & Emmett's Drummers and Fifers Guide (1862), p. 31
M:2/4
L:1/16
Q:Moderato
K:G
%%MIDI program 72
%%MIDI transpose 8
%%MIDI ratio 3 1
D2|G3A BAGF|E4 z2d2|e3f gfdc|B4 z2A2|G3F G2A2|
Bdef gfed|B3G A3F|G4 z2:|(3(Bcd)|e3d e2f2|gfga gfed|
e3d e3f|agfe edB2|{d}e3d e2f2|gfga g2fg|a3g fde^c|
HD4 z2(3(Bcd)|e3d e3f|gfed gfed|BgBg B2AG|ABAG GFED|
G3F G3A|Bdef gfed|B3G A3F|G4 z2:|
